svgs/light/square-p.svg

<svg xmlns="http://www.w3.org/2000/svg" viewBox="0 0 448 512"><!--! Font Awesome Pro 6.6.0 by @fontawesome - https://fontawesome.com License - https://fontawesome.com/license (Commercial License) Copyright 2024 Fonticons, Inc. --><path d="M64 64C46.3 64 32 78.3 32 96l0 320c0 17.7 14.3 32 32 32l320 0c17.7 0 32-14.3 32-32l0-320c0-17.7-14.3-32-32-32L64 64zM0 96C0 60.7 28.7 32 64 32l320 0c35.3 0 64 28.7 64 64l0 320c0 35.3-28.7 64-64 64L64 480c-35.3 0-64-28.7-64-64L0 96zm144 32l88 0c48.6 0 88 39.4 88 88s-39.4 88-88 88l-72 0 0 64c0 8.8-7.2 16-16 16s-16-7.2-16-16l0-80 0-144c0-8.8 7.2-16 16-16zm88 144c30.9 0 56-25.1 56-56s-25.1-56-56-56l-72 0 0 112 72 0z"/></svg>

<svg xmlns="http://www.w3.org/2000/svg" viewBox="0 0 448 512"><!--! Font Awesome Pro 6.4.0 by @fontawesome - https://fontawesome.com License - https://fontawesome.com/license (Commercial License) Copyright 2023 Fonticons, Inc. --><path d="M64 64C46.3 64 32 78.3 32 96V416c0 17.7 14.3 32 32 32H384c17.7 0 32-14.3 32-32V96c0-17.7-14.3-32-32-32H64zM0 96C0 60.7 28.7 32 64 32H384c35.3 0 64 28.7 64 64V416c0 35.3-28.7 64-64 64H64c-35.3 0-64-28.7-64-64V96zm144 32h88c48.6 0 88 39.4 88 88s-39.4 88-88 88H160v64c0 8.8-7.2 16-16 16s-16-7.2-16-16V288 144c0-8.8 7.2-16 16-16zm88 144c30.9 0 56-25.1 56-56s-25.1-56-56-56H160V272h72z"/></svg>
